src/icons/vectorize.svg

<svg width="48" height="48" viewBox="0 0 48 48" fill="none" xmlns="http://www.w3.org/2000/svg"> <path fill-rule="evenodd" clip-rule="evenodd" d="M7.38826 36.9712V5.77002H10.3875V11.052L13.345 11.052L14.8451 9.55151H16.3447L17.8448 11.052L20.6395 11.052L22.1396 9.55151H23.6392L25.1394 11.052L37.4634 11.052V5.77002H40.4626V36.9712H41.9753V39.8438H43.4948V42.8438H4.50471V39.8438H5.88132L5.88132 36.9712H7.38826ZM13.346 14.0574L14.8451 15.5569H16.3447L17.8438 14.0574H20.6405L22.1396 15.5569H23.6392L25.1384 14.0574L37.4634 14.0574V20.1233H33.6138L32.1141 18.6233H30.6145L29.1149 20.1233L17.8443 20.1233L16.3447 18.6233H14.8451L13.3455 20.1233H10.3875V14.0574H13.346ZM13.3455 23.1286H10.3875V29.0601L21.7635 29.0601L23.2629 27.5603H24.7625L26.2619 29.0601H29.1151L30.6145 27.5603H32.1141L33.6135 29.0601H37.4634V23.1287H33.6138L32.1141 24.6286H30.6145L29.1149 23.1287L17.8443 23.1286L16.3447 24.6286H14.8451L13.3455 23.1286ZM21.763 32.0654L23.2629 33.5657H24.7625L26.2623 32.0654H29.1147L30.6145 33.5657H32.1141L33.614 32.0654H37.4634V36.9712L10.3875 36.9712V32.0654H21.763Z" fill="#F6821F"/></svg>

<svg xmlns="http://www.w3.org/2000/svg" width="48" height="48" fill="none" viewBox="0 0 48 48"><path fill="#F6821F" fill-rule="evenodd" d="M7.388 36.971V5.77h3v5.282h2.957l1.5-1.5h1.5l1.5 1.5h2.795l1.5-1.5h1.5l1.5 1.5h12.323V5.77h3v31.201h1.512v2.873h1.52v3H4.505v-3H5.88V36.97zm5.958-22.914 1.5 1.5h1.499l1.499-1.5h2.796l1.5 1.5h1.5l1.498-1.5h12.325v6.066h-3.85l-1.499-1.5h-1.5l-1.5 1.5h-11.27l-1.5-1.5h-1.499l-1.5 1.5h-2.958v-6.066zm0 9.072h-2.959v5.931h11.377l1.499-1.5h1.5l1.499 1.5h2.853l1.5-1.5h1.5l1.499 1.5h3.85v-5.93h-3.85l-1.5 1.5h-1.5l-1.5-1.5h-11.27l-1.5 1.5h-1.499zm8.417 8.936 1.5 1.5h1.5l1.5-1.5h2.852l1.5 1.5h1.5l1.499-1.5h3.85v4.906H10.387v-4.906z" clip-rule="evenodd"/></svg>
